.local/share/icons/Gruvbox-Plus-Dark/panel/24/indicator-notification-unread.svg

<svg xmlns="http://www.w3.org/2000/svg" width="24" height="24" version="1.1">
 <defs>
  <style id="current-color-scheme" type="text/css">
   .ColorScheme-Text { color:#ebdbb2; } .ColorScheme-Highlight { color:#458588; }
  </style>
 </defs>
 <path style="fill:currentColor" class="ColorScheme-Text" d="m 17.435547,3.9999085 c -0.05382,0.00219 -0.107384,0.00872 -0.160156,0.019531 L 6.9765625,6.1893616 c -0.00982,0.0031 -0.019582,0.00636 -0.029297,0.00977 C 5.5107247,6.5455931 4.4983224,7.6302286 3.8164062,8.8768616 3.1344904,10.123395 2.7241851,11.586217 2.4550781,13.013581 2.2780766,13.952345 2.1822106,14.838338 2.1132812,15.669831 A 3,3 0 0 1 4,14.999909 a 3,3 0 0 1 0.1816406,0.0098 C 4.4580086,12.390296 5.1610322,8.9960021 6.9726562,8.9960023 9.9200093,8.9960023 10,17.992096 10,17.992097 H 7 a 3,3 0 0 1 0,0.0078 3,3 0 0 1 -0.7128906,1.943359 l 5.7910156,0.05664 c 0.07414,0.001 0.148159,-0.0062 0.220703,-0.02148 l 9.892578,-2.128907 c 0.443498,-0.09516 0.767389,-0.476775 0.789063,-0.929687 0,0 0.147573,-2.973065 -0.369141,-6.041016 C 22.352971,9.3448725 21.93849,7.7744309 21.177734,6.4745179 20.416979,5.1746049 19.181579,4.0985869 17.537109,4.007721 c -0.03383,-0.00172 -0.06773,-0.00172 -0.101562,0 z m 0.05078,2.0195312 c 0.842493,0.069974 1.423078,0.529425 1.964844,1.4550782 0.556625,0.9511437 0.9521,2.3308386 1.1875,3.7285161 0.407935,2.421992 0.315148,4.256762 0.296875,4.865234 L 12.27539,17.929597 C 12.268692,15.427081 11.967762,9.4103735 9.0625,7.7928773 Z M 14.539062,7.9999085 12.080078,8.210846 12,8.3006897 l 1.181641,4.6171883 0.113281,0.08203 1.388672,-0.06641 0.03906,-0.140625 -0.90039,-3.3945325 1.162109,-0.07617 L 15,9.2245175 14.603516,8.0741273 Z"/>
 <path style="opacity:0.3;fill:currentColor" class="ColorScheme-Text" d="m 6.9726562,8.9960023 c -1.8116239,0 -2.5146476,3.3941377 -2.7910156,6.0136727 A 3,3 0 0 1 7,17.992097 h 3 c 0,0 -0.079991,-8.9960947 -3.0273438,-8.9960947 z"/>
 <circle style="fill:currentColor" class="ColorScheme-Highlight" cx="4" cy="18" r="2"/>
</svg>

<svg width="24" height="24" version="1.1" xmlns="http://www.w3.org/2000/svg">
  <defs>
    <style id="current-color-scheme" type="text/css">.ColorScheme-Text { color:#ebdbb2; } .ColorScheme-Highlight { color:#458588; } .ColorScheme-NeutralText { color:#fe8019; } .ColorScheme-PositiveText { color:#689d6a; } .ColorScheme-NegativeText { color:#fb4934; }</style>
  </defs>
  <path class="ColorScheme-Text" d="m17.44 4c-0.05382 0.00219-0.1074 0.00872-0.1602 0.01953l-10.3 2.17c-0.00982 0.0031-0.01958 0.00636-0.0293 0.00977-1.437 0.3465-2.449 1.431-3.131 2.678-0.6819 1.247-1.092 2.709-1.361 4.137-0.177 0.9388-0.2729 1.825-0.3418 2.656a3 3 0 0 1 1.887-0.6699 3 3 0 0 1 0.1816 0.0098c0.2764-2.619 0.9794-6.014 2.791-6.014 2.947 0 3.027 8.996 3.027 8.996h-3a3 3 0 0 1 0 0.0078 3 3 0 0 1-0.7129 1.943l5.791 0.05664c0.07414 1e-3 0.1482-0.0062 0.2207-0.02148l9.893-2.129c0.4435-0.09516 0.7674-0.4768 0.7891-0.9297 0 0 0.1476-2.973-0.3691-6.041-0.2584-1.534-0.6728-3.104-1.434-4.404-0.7608-1.3-1.996-2.376-3.641-2.467-0.03383-0.00172-0.06773-0.00172-0.1016 0zm0.05078 2.02c0.8425 0.06997 1.423 0.5294 1.965 1.455 0.5566 0.9511 0.9521 2.331 1.188 3.729 0.4079 2.422 0.3151 4.257 0.2969 4.865l-8.66 1.861c-0.006698-2.503-0.3076-8.519-3.213-10.14zm-2.947 1.98-2.459 0.2109-0.08008 0.08984 1.182 4.617 0.1133 0.08203 1.389-0.06641 0.03906-0.1406-0.9004-3.395 1.162-0.07617 0.01563-0.09765-0.3965-1.15z" fill="currentColor"/>
  <path class="ColorScheme-Text" d="m6.973 8.996c-1.812 0-2.515 3.394-2.791 6.014a3 3 0 0 1 2.818 2.982h3s-0.07999-8.996-3.027-8.996z" fill="currentColor" opacity=".3"/>
  <circle class="ColorScheme-Highlight" cx="4" cy="18" r="2" fill="currentColor"/>
</svg>
